X:1
T:Title
%%score 1 2
L:1/8
Q:1/4=110
M:4/4
K:Bb
V:1 treble nm="Grand Piano, Staff"
V:2 bass nm="Choir Pad, Holy Cross, CM"
V:1
 [DF]2 [Fd]2 [Ec]2 [DB]2 | F2 [FA]2- [FA][EG] [DF]2 | [FB]2 [Fc]2- [Fc]F [Fc]2 | [F_d]2 [F=d]6 | %4
w: By~James~Clifft~Wade,~1865 * * *||||
 [DF]2 [Fd]2 [Ec]2 [DB]2 | [DA]2 [Cc]2- [Cc][Cc] [CB]2 | [_DG]2 [=DF]2 [DB]2 [Fd]2 | [Ec]2 [DB]6- | %8
w: ||||
 [DB]2 z2 z4 |] %9
w: |
V:2
 [B,,B,]2 B,2 [F,A,]2 [G,B,]2 | [D,B,]2 [E,B,]2- [E,B,][G,B,] B,2 | %2
 [B,D]2 [A,E]2- [A,E][A,E] [A,E]2 | [A,E]2 [B,D]6 | [B,,B,]2 B,2 [F,A,]2 [G,B,]2 | %5
 [D,^F,]2 [E,G,]2- [E,G,][E,G,] [=E,G,]2 | [=E,B,]2 [F,B,]2 [F,B,]2 [F,B,]2 | [F,A,]2 [B,,B,]6- | %8
 [B,,B,]2 z2 z4 |] %9

